packages/sources/icons/src/vitamix/warranty.svg

<svg width="24" height="24" viewBox="0 0 24 24" fill="none" xmlns="http://www.w3.org/2000/svg">
<path fill-rule="evenodd" clip-rule="evenodd" d="M21.7493 5.25042C21.7493 4.83567 21.414 4.50042 21 4.50042C17.4368 4.50042 14.7037 3.89292 12.5302 1.71942C12.237 1.42692 11.7622 1.42692 11.469 1.72017C9.2955 3.89292 6.5625 4.50042 3 4.50042C2.58525 4.50042 2.25 4.83567 2.25 5.25042C2.25 7.56717 2.856 11.2609 3.98325 14.3202C5.6235 18.7737 8.19675 21.7519 11.8477 22.4847H11.85C11.8507 22.4854 11.8515 22.4854 11.8523 22.4854C11.9006 22.4952 11.9473 22.4917 11.9941 22.4882C12.0083 22.4872 12.0225 22.4861 12.0367 22.4854C12.0522 22.4845 12.0671 22.4856 12.0819 22.4867C12.1032 22.4883 12.1245 22.4898 12.147 22.4854H12.1485C12.15 22.4847 12.1515 22.4839 12.153 22.4839C15.804 21.7512 18.3765 18.7744 20.016 14.3224C21.1432 11.2632 21.7493 7.57017 21.7493 5.25042ZM20.2298 5.99219C20.1195 8.15219 19.5578 11.2294 18.609 13.8042C17.154 17.7537 14.964 20.3172 11.9993 20.9787C9.03528 20.3172 6.84528 17.7529 5.39028 13.8027C4.44228 11.2272 3.88053 8.15069 3.76953 5.99219C4.95003 5.96594 5.92803 5.86769 7.09953 5.60744C8.97303 5.19119 10.6358 4.43894 11.9993 3.26894C13.3635 4.43819 15.0263 5.19119 16.8998 5.60744C18.0713 5.86769 19.0493 5.96594 20.2298 5.99219ZM15.9394 7.75172C16.2146 7.44214 16.6887 7.41425 16.9983 7.68944C17.3079 7.96463 17.3357 8.43868 17.0606 8.74827L11.0606 15.4983C10.7739 15.8208 10.2748 15.8355 9.96967 15.5303L6.96967 12.5303C6.67678 12.2374 6.67678 11.7626 6.96967 11.4697C7.26256 11.1768 7.73744 11.1768 8.03033 11.4697L10.4679 13.9072L15.9394 7.75172Z" fill="#001018"/>
</svg>

<svg width="24" height="24" fill="none" xmlns="http://www.w3.org/2000/svg"><path fill-rule="evenodd" clip-rule="evenodd" d="M21.75 5.25A.75.75 0 0 0 21 4.5c-3.563 0-6.296-.607-8.47-2.78a.75.75 0 0 0-1.061 0C9.296 3.893 6.563 4.5 3 4.5a.75.75 0 0 0-.75.75c0 2.317.606 6.01 1.733 9.07 1.64 4.454 4.214 7.432 7.865 8.165h.004c.049.01.095.007.142.003l.043-.003c.015 0 .03 0 .045.002a.238.238 0 0 0 .065-.002h.002l.004-.001c3.651-.733 6.223-3.71 7.863-8.162 1.127-3.059 1.733-6.752 1.733-9.072zm-1.52.742c-.11 2.16-.672 5.237-1.621 7.812-1.455 3.95-3.645 6.513-6.61 7.175-2.964-.662-5.154-3.226-6.609-7.176-.948-2.576-1.51-5.652-1.62-7.81 1.18-.027 2.158-.125 3.33-.386C8.973 5.191 10.636 4.44 12 3.27c1.364 1.17 3.026 1.922 4.9 2.338 1.171.26 2.15.359 3.33.385zm-4.29 1.76a.75.75 0 0 1 1.12.996l-6 6.75a.75.75 0 0 1-1.09.032l-3-3a.75.75 0 1 1 1.06-1.06l2.438 2.437 5.471-6.155z" fill="#001018"/></svg>
